icons/file_type_cakephp.svg

<svg xmlns="http://www.w3.org/2000/svg" viewBox="0 0 32 32"><path d="m16 13.819 10.949 2.719C28.855 15.792 30 14.846 30 13.819V9.445c0-2.409-6.27-4.369-14-4.369S2 7.035 2 9.445v4.375c0 2.411 6.267 4.369 14 4.369v-4.37Z" style="fill:#d33e44"/><path d="M26.948 16.538 16 13.818v4.37l10.949 2.72C28.854 20.16 30 19.216 30 18.188v-4.37c0 1.028-1.146 1.973-3.052 2.72ZM2 13.818v4.37c0 2.411 6.267 4.366 14 4.366v-4.366c-7.733 0-14-1.96-14-4.37Z" style="fill:#fff"/><path d="M26.948 20.908 16 18.188v4.37l10.949 2.72c1.905-.747 3.051-1.692 3.051-2.72v-4.37c0 1.028-1.146 1.973-3.052 2.72ZM2 18.188v4.37c0 2.411 6.267 4.366 14 4.366v-4.366c-7.733 0-14-1.958-14-4.37Z" style="fill:#d33e44"/></svg>

<svg xmlns="http://www.w3.org/2000/svg" viewBox="0 0 32 32"><title>file_type_cakephp</title><path d="M16,13.819l10.949,2.719C28.855,15.792,30,14.846,30,13.819V9.445c0-2.409-6.27-4.369-14-4.369S2,7.035,2,9.445v4.375c0,2.411,6.267,4.369,14,4.369V13.819Z" style="fill:#d33e44"/><path d="M26.948,16.538,16,13.818v4.37l10.949,2.72C28.854,20.16,30,19.216,30,18.188v-4.37C30,14.846,28.854,15.791,26.948,16.538Z" style="fill:#fff"/><path d="M2,13.818v4.37c0,2.411,6.267,4.366,14,4.366V18.188C8.267,18.188,2,16.228,2,13.818Z" style="fill:#fff"/><path d="M26.948,20.908,16,18.188v4.37l10.949,2.72C28.854,24.531,30,23.586,30,22.558v-4.37C30,19.216,28.854,20.161,26.948,20.908Z" style="fill:#d33e44"/><path d="M2,18.188v4.37c0,2.411,6.267,4.366,14,4.366V22.558C8.267,22.558,2,20.6,2,18.188Z" style="fill:#d33e44"/></svg>
